X: 43581
T: Young Prince Of Ulster, The
R: polka
M: 2/4
K: Gmajor
|:G>A Bd|c2 BG|c2 BG|A>G F/E/D|
G>A Bd|cA BG/B/|cB AF|1 GD ED:|2 G2 de/f/||
|:gd fd|ed de/f/|gf ed|c2 de/f/|
g2 fd|ed BG/A/|GB AF|1 G2 de/f/:|2 GD ED||

